X: 533
T: Garthland's House
R: reel
B: "Preston's Twenty Four Country Dances for the Year 1804", Tho. Preston, ed. p.227
F: http://imslp.org/wiki/24_Country_Dances_for_the_Year_1804_(Preston_(publisher),_Thomas)
N: The 2nd strain has initial repeat but no final repeat.
M: C|
L: 1/8
K: G
D |\
G2BG Bdg2 | G2 ({c}BA/G/) FA-AB | G2TB>G Bdg2 | c>A {c}BA/G/ DGG ::
d/c/ |\
(Bdd)g {b}ag/f/ Tg2 | B<Gd>G FA Ad/c/ | Bddg {b}ag/f/ Tg2 | cA d(e/c/) BG G(d/c/) |
(Bdd)g {b}ag/f/ g>c | BGdG FA AB/c/ | {e}d>cBA B>GF<E | c>A {c}BA/G/ DGG |]
% - - - - - - - - - - - - - - - - - - - - - - - - -
%%begintext align
%% Cast off one Cu. & back again, hands across back
%% again, lead down the middle up again & cast off
%% turn your Partner.
%%endtext

%%sep 1 1 500
